X:502
T:Allister. JB.07
M:2/4
L:1/8
Q:350
S:James Biggins MS, Leeds, 1779.
R:Misc.
O:England
A:Yorkshire
Z:vmp.Nick Barber & Chris Partington
K:F
"no key sig. in ms"G2g2|fdcd|BFFD|F2F2|G2g2|fdcd|BAGF|G2G2:|!
|:G>AB>c|dc/B/ cd|BFFD|F2F2|G>AB>c|dc/B/ cd|BGGF|G2G2|!
G>AB>c|dc/B/ cd|gFFD|F2F2|de/f/ gd|gdcd|BGGF|G2G2:|]


